X: 91
T:Y Dyn Meddw
T:The Drunkard
M:6/8
L:1/8
Q:130
S:Cadw Twmpath Collection
R:Jig
A:Wales
Z:brian_martin12345@yahoo.com
K:G
G2DG2D|G2B BGD|F2DF2D|F2A AFD|G2DG2D|G2B BGD|B2e dBG|F2A AFD:||!
d2Bd2B|BdB dBG|d2Ad2A|AdA dAF|B2d dcB|e2g gfe|dcB BAG|F2A AFD:||!
dgf gdG|FAG AFD|dgf gdG|F2A AFD|dgf gfe|def gfe|dcB BAG|F2A AFD:||
